X: 12647
T: Farmers' Jamboree
R: jig
M: 6/8
K: Amajor
|:c/d/|efe dcB|A2 c E2 [Ac]|c^Bc edc|B3- B2 c/d/|
efe dcB|A2 c E2 [ea]|gfe dcB|A3- A2:|
|:c/d/|e2 c a2 g|f2 B b2 a|gB/B/B Bdf|e3- e2 c/d/|
e2 c a2 g|f2 d b2 a|gfe dcB|A3- A2:|

